images/Star 0.svg

<svg width="25" height="23" viewBox="0 0 25 23" fill="none" xmlns="http://www.w3.org/2000/svg">
<path d="M12.5 1.61804L14.8309 8.7918L14.9432 9.13729H15.3064H22.8494L16.747 13.5709L16.4531 13.7844L16.5654 14.1299L18.8963 21.3037L12.7939 16.8701L12.5 16.6565L12.2061 16.8701L6.10374 21.3037L8.43464 14.1299L8.54689 13.7844L8.253 13.5709L2.15064 9.13729H9.69357H10.0568L10.1691 8.7918L12.5 1.61804Z" stroke="#FACA12"/>
</svg>

<svg width="25" height="23" fill="none" xmlns="http://www.w3.org/2000/svg"><path d="m12.5 1.618 2.33 7.174.113.345H22.85l-6.102 4.434-.294.213.112.346 2.331 7.174-6.102-4.434-.294-.213-.294.213-6.102 4.434 2.33-7.174.113-.346-.294-.213-6.102-4.434H10.057l.112-.345L12.5 1.618Z" stroke="#FACA12"/></svg>
